brandFactory_export/2.Regular/Carpeta encriptada_2Regular.svg

<?xml version="1.0" encoding="UTF-8"?>
<svg width="24px" height="24px" viewBox="0 0 24 24" version="1.1" xmlns="http://www.w3.org/2000/svg" xmlns:xlink="http://www.w3.org/1999/xlink">
    <title>2.Regular/Carpeta encriptada_2Regular</title>
    <g id="Symbols" stroke="none" stroke-width="1" fill="none" fill-rule="evenodd">
        <g id="2.Regular/Carpeta-encriptada_2Regular" fill="#5CB615" fill-rule="nonzero">
            <path d="M22.0941176,17.9495798 L22.0941176,4.41008403 C22.0941176,4.28235294 21.9966387,4.18487395 21.8689076,4.18487395 L11.3176471,4.18487395 C10.8941176,4.18487395 10.5512605,3.84201681 10.5512605,3.41848739 L10.5512605,1.77478992 C10.5512605,1.64705882 10.4537815,1.54957983 10.3260504,1.54957983 L1.75462185,1.54957983 C1.62689076,1.54957983 1.52941176,1.64705882 1.52941176,1.77478992 L1.52941176,17.9495798 C1.52941176,18.0773109 1.62689076,18.1747899 1.75462185,18.1747899 L21.8655462,18.1747899 C21.9932773,18.1747899 22.0941176,18.0773109 22.0941176,17.9495798 Z M21.8655462,2.65210084 C22.8336134,2.65210084 23.6235294,3.43865546 23.6235294,4.40672269 L23.6235294,17.9495798 C23.6235294,18.9176471 22.8369748,19.7042017 21.8655462,19.7042017 L1.75462185,19.7042017 C0.786554622,19.7042017 0,18.9176471 0,17.9495798 L0,1.77478992 C0,0.806722689 0.786554622,0.0201680672 1.75462185,0.0201680672 L10.3260504,0.0201680672 C11.2941176,0.0201680672 12.0806723,0.806722689 12.0806723,1.77478992 L12.0806723,2.65546218 L21.8655462,2.65546218 L21.8655462,2.65210084 Z M6.9210084,8.06722689 C6.9210084,6.71596639 7.33781513,6.01344538 8.43361345,6.01344538 C9.52941176,6.01344538 9.94621849,6.71596639 9.94621849,8.06722689 C9.94621849,9.41848739 9.52941176,10.1142857 8.43361345,10.1142857 C7.33781513,10.1142857 6.9210084,9.41848739 6.9210084,8.06722689 L6.9210084,8.06722689 Z M9.08571429,8.06722689 C9.08571429,6.97815126 8.90084034,6.61848739 8.43361345,6.61848739 C7.96638655,6.61848739 7.78151261,6.97478992 7.78151261,8.06722689 C7.78151261,9.15630252 7.96638655,9.45210084 8.43361345,9.45210084 C8.90084034,9.45210084 9.08571429,9.15630252 9.08571429,8.06722689 Z M2.61176471,8.06722689 C2.61176471,6.71596639 3.02857143,6.01344538 4.12436975,6.01344538 C5.22016807,6.01344538 5.63697479,6.71596639 5.63697479,8.06722689 C5.63697479,9.41848739 5.22016807,10.1142857 4.12436975,10.1142857 C3.02857143,10.1142857 2.61176471,9.41848739 2.61176471,8.06722689 Z M4.77647059,8.06722689 C4.77647059,6.97815126 4.59159664,6.61848739 4.12436975,6.61848739 C3.65714286,6.61848739 3.47226891,6.97478992 3.47226891,8.06722689 C3.47226891,9.15630252 3.65714286,9.45210084 4.12436975,9.45210084 C4.59159664,9.45210084 4.77647059,9.15630252 4.77647059,8.06722689 Z M17.8689076,8.06722689 C17.8689076,6.71596639 18.2857143,6.01344538 19.3815126,6.01344538 C20.4773109,6.01344538 20.8941176,6.71596639 20.8941176,8.06722689 C20.8941176,9.41848739 20.4773109,10.1142857 19.3815126,10.1142857 C18.2823529,10.1142857 17.8689076,9.41848739 17.8689076,8.06722689 Z M20.0302521,8.06722689 C20.0302521,6.97815126 19.8453782,6.61848739 19.3781513,6.61848739 C18.9109244,6.61848739 18.7260504,6.97478992 18.7260504,8.06722689 C18.7260504,9.15630252 18.9109244,9.45210084 19.3781513,9.45210084 C19.8453782,9.45210084 20.0302521,9.15630252 20.0302521,8.06722689 Z M11.1663866,9.49915966 L11.8285714,9.49915966 L11.8285714,6.74957983 L11.1932773,6.74957983 L11.1932773,6.19831933 C11.4252101,6.16470588 11.8184874,6.13109244 12.097479,6.13109244 C12.5008403,6.13109244 12.6386555,6.22857143 12.6386555,6.51764706 L12.6386555,9.50252101 L13.1966387,9.50252101 L13.1966387,10.0840336 L11.1630252,10.0840336 L11.1630252,9.49915966 L11.1663866,9.49915966 Z M3.17310924,15.9798319 L3.83529412,15.9798319 L3.83529412,13.2302521 L3.20336134,13.2302521 L3.20336134,12.6789916 C3.43529412,12.6453782 3.82857143,12.6117647 4.10756303,12.6117647 C4.51092437,12.6117647 4.6487395,12.7092437 4.6487395,12.9983193 L4.6487395,15.9831933 L5.20672269,15.9831933 L5.20672269,16.5647059 L3.17310924,16.5647059 L3.17310924,15.9798319 Z M14.6554622,9.49915966 L15.3176471,9.49915966 L15.3176471,6.74957983 L14.6857143,6.74957983 L14.6857143,6.19831933 C14.9176471,6.16470588 15.3109244,6.13109244 15.589916,6.13109244 C15.9932773,6.13109244 16.1310924,6.22857143 16.1310924,6.51764706 L16.1310924,9.50252101 L16.6890756,9.50252101 L16.6890756,10.0840336 L14.6554622,10.0840336 L14.6554622,9.49915966 Z M6.9210084,14.5512605 C6.9210084,13.2 7.33781513,12.497479 8.43361345,12.497479 C9.52941176,12.497479 9.94621849,13.2 9.94621849,14.5512605 C9.94621849,15.902521 9.52941176,16.5983193 8.43361345,16.5983193 C7.33781513,16.5983193 6.9210084,15.902521 6.9210084,14.5512605 L6.9210084,14.5512605 Z M9.08571429,14.5512605 C9.08571429,13.4621849 8.90084034,13.102521 8.43361345,13.102521 C7.96638655,13.102521 7.78151261,13.4588235 7.78151261,14.5512605 C7.78151261,15.6436975 7.96638655,15.9361345 8.43361345,15.9361345 C8.90084034,15.9361345 9.08571429,15.6403361 9.08571429,14.5512605 L9.08571429,14.5512605 Z M17.8689076,14.5512605 C17.8689076,13.2 18.2857143,12.497479 19.3815126,12.497479 C20.4773109,12.497479 20.8941176,13.2 20.8941176,14.5512605 C20.8941176,15.902521 20.4773109,16.5983193 19.3815126,16.5983193 C18.2823529,16.5983193 17.8689076,15.902521 17.8689076,14.5512605 Z M20.0302521,14.5512605 C20.0302521,13.4621849 19.8453782,13.102521 19.3781513,13.102521 C18.9109244,13.102521 18.7260504,13.4588235 18.7260504,14.5512605 C18.7260504,15.6436975 18.9109244,15.9361345 19.3781513,15.9361345 C19.8453782,15.9361345 20.0302521,15.6403361 20.0302521,14.5512605 L20.0302521,14.5512605 Z M11.1663866,15.9831933 L11.8285714,15.9831933 L11.8285714,13.2336134 L11.1932773,13.2336134 L11.1932773,12.6823529 C11.4252101,12.6487395 11.8184874,12.6151261 12.097479,12.6151261 C12.5008403,12.6151261 12.6386555,12.712605 12.6386555,13.0016807 L12.6386555,15.9865546 L13.1966387,15.9865546 L13.1966387,16.5680672 L11.1630252,16.5680672 L11.1630252,15.9831933 L11.1663866,15.9831933 Z M14.6554622,15.9831933 L15.3176471,15.9831933 L15.3176471,13.2336134 L14.6857143,13.2336134 L14.6857143,12.6823529 C14.9176471,12.6487395 15.3109244,12.6151261 15.589916,12.6151261 C15.9932773,12.6151261 16.1310924,12.712605 16.1310924,13.0016807 L16.1310924,15.9865546 L16.6890756,15.9865546 L16.6890756,16.5680672 L14.6554622,16.5680672 L14.6554622,15.9831933 Z" id="Carpeta-encriptada_2Regular"></path>
        </g>
    </g>
</svg>

<svg width="24" height="24" viewBox="0 0 24 24" xmlns="http://www.w3.org/2000/svg"><path d="M22.094 17.95V4.41a.221.221 0 00-.225-.225H11.318a.766.766 0 01-.767-.767V1.775a.221.221 0 00-.225-.225H1.755a.221.221 0 00-.226.225V17.95c0 .127.098.225.226.225h20.11a.224.224 0 00.23-.225zm-.228-15.298c.968 0 1.758.787 1.758 1.755V17.95c0 .968-.787 1.754-1.758 1.754H1.755A1.756 1.756 0 010 17.95V1.775C0 .807.787.02 1.755.02h8.571c.968 0 1.755.787 1.755 1.755v.88h9.785v-.003zM6.92 8.067c0-1.351.417-2.054 1.513-2.054 1.095 0 1.512.703 1.512 2.054s-.417 2.047-1.512 2.047c-1.096 0-1.513-.696-1.513-2.047zm2.165 0c0-1.089-.185-1.449-.652-1.449-.468 0-.652.357-.652 1.45 0 1.088.184 1.384.652 1.384.467 0 .652-.296.652-1.385zm-6.474 0c0-1.351.417-2.054 1.512-2.054 1.096 0 1.513.703 1.513 2.054s-.417 2.047-1.513 2.047c-1.095 0-1.512-.696-1.512-2.047zm2.164 0c0-1.089-.184-1.449-.652-1.449-.467 0-.652.357-.652 1.45 0 1.088.185 1.384.652 1.384.468 0 .652-.296.652-1.385zm13.093 0c0-1.351.417-2.054 1.513-2.054 1.095 0 1.512.703 1.512 2.054s-.417 2.047-1.512 2.047c-1.1 0-1.513-.696-1.513-2.047zm2.161 0c0-1.089-.185-1.449-.652-1.449s-.652.357-.652 1.45c0 1.088.185 1.384.652 1.384s.652-.296.652-1.385zM11.166 9.5h.663V6.75h-.636V6.2c.232-.034.625-.068.904-.068.404 0 .542.098.542.387v2.985h.558v.581h-2.034v-.585h.003zm-7.993 6.48h.662V13.23h-.632v-.551c.232-.034.626-.067.905-.067.403 0 .54.097.54.386v2.985h.559v.582H3.173v-.585zM14.655 9.5h.663V6.75h-.632V6.2c.232-.034.625-.068.904-.068.403 0 .541.098.541.387v2.985h.558v.581h-2.034v-.585zm-7.734 5.052c0-1.351.417-2.054 1.513-2.054 1.095 0 1.512.703 1.512 2.054 0 1.352-.417 2.047-1.512 2.047-1.096 0-1.513-.695-1.513-2.047zm2.165 0c0-1.089-.185-1.448-.652-1.448-.468 0-.652.356-.652 1.448 0 1.093.184 1.385.652 1.385.467 0 .652-.296.652-1.385zm8.783 0c0-1.351.417-2.054 1.513-2.054 1.095 0 1.512.703 1.512 2.054 0 1.352-.417 2.047-1.512 2.047-1.1 0-1.513-.695-1.513-2.047zm2.161 0c0-1.089-.185-1.448-.652-1.448s-.652.356-.652 1.448c0 1.093.185 1.385.652 1.385s.652-.296.652-1.385zm-8.864 1.432h.663v-2.75h-.636v-.55c.232-.034.625-.068.904-.068.404 0 .542.098.542.387v2.985h.558v.581h-2.034v-.585h.003zm3.49 0h.662v-2.75h-.632v-.55c.232-.034.625-.068.904-.068.403 0 .541.098.541.387v2.985h.558v.581h-2.034v-.585z" fill="#5CB615" fill-rule="nonzero"/></svg>
